media/store/assets/Reddit-share.svg

<?xml version="1.0" encoding="UTF-8" standalone="no"?>
<!-- Created with Inkscape (http://www.inkscape.org/) -->

<svg
   width="150mm"
   height="150mm"
   viewBox="0 0 150 150"
   version="1.1"
   id="svg5"
   inkscape:version="1.1.1 (3bf5ae0d25, 2021-09-20)"
   sodipodi:docname="Reddit-share.svg"
   xmlns:inkscape="http://www.inkscape.org/namespaces/inkscape"
   xmlns:sodipodi="http://sodipodi.sourceforge.net/DTD/sodipodi-0.dtd"
   xmlns="http://www.w3.org/2000/svg"
   xmlns:svg="http://www.w3.org/2000/svg">
  <sodipodi:namedview
     id="namedview7"
     pagecolor="#505050"
     bordercolor="#eeeeee"
     borderopacity="1"
     inkscape:pageshadow="0"
     inkscape:pageopacity="0"
     inkscape:pagecheckerboard="0"
     inkscape:document-units="mm"
     showgrid="false"
     inkscape:zoom="0.9"
     inkscape:cx="287.77778"
     inkscape:cy="332.77778"
     inkscape:window-width="1920"
     inkscape:window-height="1005"
     inkscape:window-x="-9"
     inkscape:window-y="-9"
     inkscape:window-maximized="1"
     inkscape:current-layer="layer1"
     showguides="true"
     inkscape:guide-bbox="true" />
  <defs
     id="defs2" />
  <g
     inkscape:label="Layer 1"
     inkscape:groupmode="layer"
     id="layer1">
    <g
       id="g958">
      <path
         id="rect846-21-6-7-4"
         style="fill:#ff4500;fill-opacity:1;fill-rule:evenodd;stroke-width:0;stroke-linecap:round;stroke-linejoin:round"
         d="M 49.999975,-7.2628034e-5 V 9.9998337 H 30.000163 V 20.000257 h -9.999906 v 9.999906 H 9.9998337 v 9.999906 9.999906 H -7.2628034e-5 V 100.00002 H 9.9998337 v 19.99982 H 19.99974 v 9.9999 h 10.000423 v 10.00043 h 9.999906 9.999906 v 9.9999 h 50.000045 v -9.9999 h 19.99982 v -10.00043 h 9.9999 v -9.9999 h 10.00043 v -9.99991 -9.99991 h 9.9999 V 49.999975 h -9.9999 V 30.000163 h -9.99991 V 20.000257 H 119.99984 V 9.9998337 h -9.99991 -9.99991 V -7.2628034e-5 Z M 129.99974,40.000069 h 5.3e-4 v 19.999812 h -5.3e-4 z m -110,50.000048 h 5.29e-4 v 19.999813 h -5.29e-4 z" />
      <path
         id="rect1075-6-5-1"
         style="fill:#ffffff;fill-opacity:1;fill-rule:evenodd;stroke-width:0;stroke-linecap:round;stroke-linejoin:round"
         d="M 377.95312 94.488281 L 377.95312 113.38672 L 302.36133 113.38672 L 302.36133 151.18164 L 377.95312 151.18164 L 377.95312 170.07812 L 453.54297 170.07812 L 453.54297 94.488281 L 377.95312 94.488281 z M 302.36133 151.18164 L 264.56641 151.18164 L 264.56641 188.97656 L 226.77344 188.97656 L 188.97852 188.97656 L 188.97852 226.77148 L 151.18359 226.77148 L 113.38867 226.77148 L 113.38867 264.56641 L 113.38867 302.36133 L 113.38867 377.95312 L 113.38672 377.95312 L 113.38672 415.74805 L 113.38672 453.54297 L 151.18164 453.54297 L 188.97656 453.54297 L 188.97656 491.33789 L 226.77148 491.33789 L 264.56641 491.33789 L 302.36133 491.33789 L 340.1543 491.33789 L 377.95117 491.33789 L 377.95117 453.54297 L 377.95312 453.54297 L 415.74805 453.54297 L 453.54297 453.54297 L 453.54297 415.74805 L 453.54297 377.95312 L 453.54297 302.36133 L 453.54492 302.36133 L 453.54492 340.1582 L 453.54492 377.95312 L 453.54492 415.74805 L 491.33984 415.74805 L 491.33984 377.95312 L 491.33984 340.1582 L 491.33984 302.36133 L 491.33984 264.56836 L 529.13477 264.56836 L 529.13477 188.97656 L 453.54492 188.97656 L 453.54492 226.77148 L 415.74805 226.77148 L 377.95312 226.77148 L 377.95312 188.97656 L 340.1582 188.97656 L 302.36523 188.97656 L 302.36133 188.97656 L 302.36133 151.18164 z M 37.794922 188.97461 L 37.794922 264.56641 L 75.589844 264.56641 L 75.589844 302.36328 L 75.589844 340.1582 L 75.589844 377.95312 L 75.589844 415.74805 L 113.38477 415.74805 L 113.38477 377.95312 L 113.38477 340.1582 L 113.38477 302.36328 L 113.38477 264.56641 L 113.38477 188.97461 L 37.794922 188.97461 z M 340.1543 226.77148 L 340.1582 226.77148 L 340.1582 264.56641 L 340.1543 264.56641 L 340.1543 226.77148 z M 151.18164 377.95312 L 151.18359 377.95312 L 151.18359 415.74805 L 151.18164 415.74805 L 151.18164 377.95312 z M 226.77148 415.74805 L 226.77344 415.74805 L 226.77344 453.54297 L 226.77148 453.54297 L 226.77148 415.74805 z M 340.1543 415.74805 L 340.1582 415.74805 L 340.1582 453.54297 L 340.1543 453.54297 L 340.1543 415.74805 z "
         transform="scale(0.26458333)" />
      <path
         id="rect1075-6-5-1-37-1-2-0-0-9-6-6"
         style="fill:#ff4500;fill-opacity:1;fill-rule:evenodd;stroke-width:0;stroke-linecap:round;stroke-linejoin:round"
         d="M 40.000658,69.999862 V 90.000189 H 60.000472 V 69.999862 Z m 49.999531,0 V 90.000189 H 110 V 69.999862 Z M 50.000048,100.0001 V 110 h 9.999905 v -9.9999 z M 59.999953,110 v 9.99991 H 90.000189 V 110 Z m 30.000236,0 h 9.999911 v -9.9999 h -9.999911 z" />
    </g>
  </g>
</svg>

<?xml version="1.0" encoding="UTF-8" standalone="no"?>
<!-- Created with Inkscape (http://www.inkscape.org/) -->

<svg
   width="150mm"
   height="150mm"
   viewBox="0 0 150 150"
   version="1.1"
   id="svg5"
   inkscape:version="1.1.1 (3bf5ae0d25, 2021-09-20)"
   sodipodi:docname="Reddit-share.svg"
   xmlns:inkscape="http://www.inkscape.org/namespaces/inkscape"
   xmlns:sodipodi="http://sodipodi.sourceforge.net/DTD/sodipodi-0.dtd"
   xmlns="http://www.w3.org/2000/svg"
   xmlns:svg="http://www.w3.org/2000/svg">
  <sodipodi:namedview
     id="namedview7"
     pagecolor="#505050"
     bordercolor="#eeeeee"
     borderopacity="1"
     inkscape:pageshadow="0"
     inkscape:pageopacity="0"
     inkscape:pagecheckerboard="0"
     inkscape:document-units="mm"
     showgrid="false"
     inkscape:zoom="0.9"
     inkscape:cx="287.77778"
     inkscape:cy="332.77778"
     inkscape:window-width="1920"
     inkscape:window-height="1005"
     inkscape:window-x="-9"
     inkscape:window-y="-9"
     inkscape:window-maximized="1"
     inkscape:current-layer="layer1"
     showguides="true"
     inkscape:guide-bbox="true" />
  <defs
     id="defs2" />
  <g
     inkscape:label="Layer 1"
     inkscape:groupmode="layer"
     id="layer1">
    <g
       id="g3869">
      <path
         id="rect846-21-6-7-4"
         style="fill:#ff4500;fill-opacity:1;fill-rule:evenodd;stroke-width:0;stroke-linecap:round;stroke-linejoin:round"
         d="M 49.999975,-7.2628034e-5 V 9.9998337 H 30.000163 V 20.000257 h -9.999906 v 9.999906 H 9.9998337 v 9.999906 9.999906 H -7.2628034e-5 V 100.00002 H 9.9998337 v 19.99982 H 19.99974 v 9.9999 h 10.000423 v 10.00043 h 9.999906 9.999906 v 9.9999 h 50.000045 v -9.9999 h 19.99982 v -10.00043 h 9.9999 v -9.9999 h 10.00043 v -9.99991 -9.99991 h 9.9999 V 49.999975 h -9.9999 V 30.000163 h -9.99991 V 20.000257 H 119.99984 V 9.9998337 h -9.99991 -9.99991 V -7.2628034e-5 Z M 129.99974,40.000069 h 5.3e-4 v 19.999812 h -5.3e-4 z m -110,50.000048 h 5.29e-4 v 19.999813 h -5.29e-4 z" />
      <path
         id="rect1075-6-5-1"
         style="fill:#ffffff;fill-opacity:1;fill-rule:evenodd;stroke-width:0;stroke-linecap:round;stroke-linejoin:round"
         d="m 377.95312,94.488281 v 18.898439 h -75.59179 v 37.79492 h 75.59179 v 18.89648 h 75.58985 V 94.488281 Z m -75.59179,56.693359 h -37.79492 v 37.79492 h -37.79297 -37.79492 v 37.79492 h -37.79493 -37.79492 v 37.79493 37.79492 75.59179 h -0.002 v 37.79493 37.79492 h 37.79492 37.79492 v 37.79492 h 37.79492 37.79493 37.79492 37.79297 37.79687 v -37.79492 h 0.002 37.79493 37.79492 v -37.79492 -37.79493 -75.59179 h 0.002 v 37.79687 37.79492 37.79493 h 37.79492 V 377.95312 340.1582 302.36133 264.56641 H 453.54497 V 226.77148 H 415.7481 377.95317 v -37.79492 h -37.79492 -37.79297 -0.004 z m 37.79297,75.58984 h 0.004 v 37.79493 h -0.004 z M 75.589844,264.56641 v 37.79687 37.79492 37.79492 37.79493 H 113.38477 V 377.95312 340.1582 302.36328 264.56641 Z m 75.591796,113.38671 h 0.002 v 37.79493 h -0.002 z m 75.58984,37.79493 h 0.002 v 37.79492 h -0.002 z m 113.38282,0 h 0.004 v 37.79492 h -0.004 z"
         transform="scale(0.26458333)" />
      <path
         id="rect1075-6-5-1-37-1-2-0-0-9-6-6"
         style="fill:#ff4500;fill-opacity:1;fill-rule:evenodd;stroke-width:0;stroke-linecap:round;stroke-linejoin:round"
         d="m 151.18359,264.56641 v 75.59179 h 75.58985 v -75.59179 z m 188.97461,0 v 75.59179 h 75.58985 V 264.56641 Z M 188.97656,377.95312 v 37.79493 h 37.79492 v -37.79493 z m 37.79492,37.79493 v 37.79492 H 340.1582 v -37.79492 z m 113.38672,0 h 37.79492 V 377.95312 H 340.1582 Z"
         transform="scale(0.26458333)" />
    </g>
  </g>
</svg>
